X: 3
T: The Culfadda
R: reel
M: 4/4
L: 1/8
K: Gmaj
A|BedB AcBA|GBAG EFGE|D~B,3 DEGA|BGdB A2GA|BedB AcBA|GBAG EFGE|D~B,3 DEGA|BGAF ~G3:|B|~d3B cBAB|GABG AGEG|DG~G2 DGBd|cBAG EGAB|~c3e dB~B2|edef gdBG|DG~G2 DGBe|dBAB ~G3:|


Tune 1523	Setting 1523

